X:1
T:Title
%%score { 1 | 2 }
L:1/8
Q:1/4=104
M:4/4
K:F
V:1 treble nm="Grand Piano"
V:2 bass 
V:1
 A2 A>A dcBA | [DG]2 [DG]>[DB] D4 | E2 E>[EG] [Ec][DEB][CEA][B,EG] | F2 A>d c4 | A2 A>A dcBA | %5
w: C.~Harold~Lowden * * * * * *|||||
 G2 [Gc]>d e4 | d2 [FA]>[FA] =BBAG |[M:5/4] [Ec]2 [Ec]>[Fc] [Gc]6 |[M:3/4] C2 F2 G2 | A2 c4 | %10
w: |||||
 d2 f2 d2 | c2 A4 | [Ec]2 [EG]2 [Ec]2 | c2 A2 F2 | D2 E2 F2 | A3 G ED | C2 F2 G2 | A2 c4 | %18
w: ||||||||
 d2 f2 d2 | c2 [^Fd]3 [FA] | [GB]2 [Ec]3 [EG] | [CFA]2 [_EAc]2 [DGB]2 | [FA]2 [CEA]2 [B,EG]2 | %23
w: |||||
 [A,F]6 |] %24
w: |
V:2
 [F,CF]2 [F,CF]>[F,CF] [F,B,F][F,A,F][F,DF][F,CF] | [B,,B,]2 [B,,B,]>[B,,B,] [B,,G,B,]4 | %2
 [C,G,B,]2 [C,G,B,]>[C,B,] [C,G,]C,C,C, | [F,A,]2 [F,CF]>[F,B,F] [F,A,F]4 | %4
 [F,CF]2 [F,CF]>[F,CF] [F,B,F][F,A,F][F,DF][F,CF] | [G,CE]2 [E,C]>[K:treble][G,=B,G] [CG]4 | %6
 [F,A,F]2 [D,D]>[D,D][K:treble] [G,DF][G,DF][G,CF][G,=B,F] | %7
[M:5/4][K:bass] [C,C]2 [C,G,]>[C,A,] [C,B,]6 |[M:3/4] [F,A,]2 [F,A,C]2 [F,B,C]2 | %9
 [F,CF]2 [F,A,F]4 | [B,F]2 [B,DF]2 [B,F]2 | [F,A,F]2 [F,CF]4 | [C,C]2 [C,C]2 [C,B,]2 | %13
 [F,A,F]2 [F,CF]2 [F,A,C]2 | [F,G,=B,]2 [E,G,B,]2 [D,G,B,]2 | [C,E,B,]3 [C,E,B,] [C,G,B,][C,E,B,] | %16
 [F,A,]2 [F,A,C]2 [F,B,C]2 | [F,CF]2 [F,A,F]4 | [B,F]2 [B,DF]2 [B,F]2 | [F,A,F]2 [D,D]3 [D,D] | %20
 [G,D]2 [C,C]3 [C,C] | F,2 ^F,2 G,2 | C2 C,2 C,2 | F,6 |] %24

